assets/images/star-half.svg

<svg viewBox="0 0 46.92139 44.625" xmlns="http://www.w3.org/2000/svg"><path d="m46.92139 18.34766-1.10839-3.41211-14.20607-2.06348-6.35254-12.87207h-3.58691l-6.353 12.87207-14.20608 2.06348-1.1084 3.41211 10.2793 10.01953-2.4263 14.14941 2.90185 2.1084 12.70606-6.68066 12.70559 6.68066 2.90186-2.1084-2.42627-14.14941zm-12.48047 20.85058-10.04932-5.28418h-.93091v-28.50927l.00025-.00049 5.02441 10.1807 1.50586 1.09473 11.23633 1.63183-8.13037 7.92481-.5752 1.77051z" fill="#0743ff"/></svg>

<svg xmlns="http://www.w3.org/2000/svg" viewBox="0 0 46.92139 44.625"><defs><style>.cls-1{fill:#0743ff;}</style></defs><title>star-half</title><g id="Layer_2" data-name="Layer 2"><g id="Layer_1-2" data-name="Layer 1"><path class="cls-1" d="M46.92139,18.34766,45.813,14.93555,31.60693,12.87207,25.25439,0H21.66748l-6.353,12.87207L1.1084,14.93555,0,18.34766,10.2793,28.36719,7.853,42.5166l2.90185,2.1084,12.70606-6.68066L36.1665,44.625l2.90186-2.1084L36.64209,28.36719ZM34.44092,39.19824,24.3916,33.91406h-.93091V5.40479l.00025-.00049L28.48535,15.585l1.50586,1.09473,11.23633,1.63183-8.13037,7.92481-.5752,1.77051Z"/></g></g></svg>
